X:174
T:Wild Goose Chace. JJo8.174
B:J.Johnson Choice Collection Vol 8 1758
Z:vmp.Simon Wilson 2013 www.village-music-project.org.uk
M:2/4
L:1/8
Q:1/2=75
K:Bb
|:B|dfdB|egec|dfdB|AcAF|dfdB|egec|dBFA|B3:|
|:B|FBFD|EcAE|DFEG|FDCB,|FBFD|EcAE|DBCA|B3:|
|:f|dffb|bfdB|cdef|gBAF|Ge2G|Fd2F|EcFA|B3:|
